X:472
T:Father Dollard's hornpipe
R:Hornpipe
O:Ireland
B:O'Neill's 1669
S:O'Neill's 1669
S:My arrangement from various sources
Z:Transcription, arrangement, chords:Mike Long
M:4/4
L:1/8
K:D
FE|\
"D"D2~D2 DFAA|defe dcBA|"A"FA~A2 dA~A2|"G"GFED "A"CEA,C|\
"D"D2~D2 DFAA|
defe dcBA|"A"FA~A2 "G"BAGE|"D"FDDC D2:|\
|:(de)|\
"D"fd~d2 Ad~d2 |"D"fd~d2 "G"bgaf|
"A"gece Acef|"G"~g2bg "A"agfg|\
"D"Ad~d2 "G"(3(Bcd) AF|"D"Ad~d2 "G"(3(Bcd) A2|"D"Adfa "A"geAc|"D"eddc d2:|
